!!!COM:      Bach, Johann Sebastian
!!!CDT:      1685/03/31/-1750/07/28/
!!!OPR@@GER: Das wohltemperirte Clavier
!!!OVM@@GER: Band I
!!!OPR@ENG:  Well-Tempered Clavier
!!!OVM@ENG:  Book I
!!!OTL:      Prelude
!!!OKY:      D major
!!!ONM:      no. 5
!!!SCT:      BWV 850
!!!OMV:      1
**kern	**kern	**kern	**kern	**kern
*clefF4	*	*	*	*clefG2
*k[f#c#]	*	*	*	*k[f#c#]
*D:	*	*	*	*D:
*M4/4	*	*	*	*M4/4
*met(c)	*	*	*	*met(c)
*MM116	*MM116	*MM116	*MM116	*MM116
=1-	=1-	=1-	=1-	=1-
8D	1ryy	1ryy	1ryy	16r
.	.	.	.	16dd
8r	.	.	.	16ee
.	.	.	.	16ff#
8d	.	.	.	16a
.	.	.	.	16ff#
8r	.	.	.	16ee
.	.	.	.	16dd
8F#	.	.	.	16aa
.	.	.	.	16dd
8r	.	.	.	16ee
.	.	.	.	16ff#
8d	.	.	.	16a
.	.	.	.	16ff#
8r	.	.	.	16ee
.	.	.	.	16dd
=2	=2	=2	=2	=2
8E	1ryy	1ryy	1ryy	16gg
.	.	.	.	16ee
8r	.	.	.	16ff#
.	.	.	.	16gg
8d	.	.	.	16b
.	.	.	.	16dd
8r	.	.	.	16cc#
.	.	.	.	16b
8A	.	.	.	16cc#
.	.	.	.	16ee
8r	.	.	.	16ff#
.	.	.	.	16gg
8c#	.	.	.	16a
.	.	.	.	16gg
8r	.	.	.	16ff#
.	.	.	.	16ee
=3	=3	=3	=3	=3
8D	1ryy	1ryy	1ryy	16ff#
.	.	.	.	16dd
8r	.	.	.	16ee
.	.	.	.	16ff#
8d	.	.	.	16a
.	.	.	.	16cc#
8r	.	.	.	16b
.	.	.	.	16a
8D	.	.	.	16b
.	.	.	.	16dd
8r	.	.	.	16ee
.	.	.	.	16ff#
8d	.	.	.	16b
.	.	.	.	16aa
8r	.	.	.	16gg#
.	.	.	.	16ff#
=4	=4	=4	=4	=4
8D	1ryy	1ryy	1ryy	16gg#
.	.	.	.	16ee
8r	.	.	.	16ff#
.	.	.	.	16gg#
8G#	.	.	.	16b
.	.	.	.	16dd
8r	.	.	.	16cc#
.	.	.	.	16b
8C#	.	.	.	16a
.	.	.	.	16cc#
8r	.	.	.	16dd
.	.	.	.	16ee
8A	.	.	.	16f#
.	.	.	.	16ee
8r	.	.	.	16dd
.	.	.	.	16cc#
=5	=5	=5	=5	=5
8BB	1ryy	1ryy	1ryy	16dd
.	.	.	.	16b
8r	.	.	.	16cc#
.	.	.	.	16dd
8A	.	.	.	16f#
.	.	.	.	16a
8r	.	.	.	16g#
.	.	.	.	16f#
8E	.	.	.	16g#
.	.	.	.	16b
8r	.	.	.	16cc#
.	.	.	.	16dd
8G#	.	.	.	16e
.	.	.	.	16dd
8r	.	.	.	16cc#
.	.	.	.	16b
=6	=6	=6	=6	=6
8AA	1ryy	1ryy	1ryy	16cc#
.	.	.	.	16a
8r	.	.	.	16b
.	.	.	.	16cc#
8A	.	.	.	16e
.	.	.	.	16gn
8r	.	.	.	16f#
.	.	.	.	16e
8AA	.	.	.	16f#
.	.	.	.	16a
8r	.	.	.	16b
.	.	.	.	16cc#
8A	.	.	.	16f#
.	.	.	.	16ee
8r	.	.	.	16dd#
.	.	.	.	16cc#
=7	=7	=7	=7	=7
8AA	1ryy	1ryy	1ryy	16dd#
.	.	.	.	16b
8r	.	.	.	16cc#
.	.	.	.	16dd#
8D#	.	.	.	16f#
.	.	.	.	16a
8r	.	.	.	16g
.	.	.	.	16f#
8GG	.	.	.	16e
.	.	.	.	16g
8r	.	.	.	16a
.	.	.	.	16b
8E	.	.	.	16c#
.	.	.	.	16ddn
8r	.	.	.	16cc#
.	.	.	.	16b
=8	=8	=8	=8	=8
8FF#	1ryy	1ryy	1ryy	16a#
.	.	.	.	16e
8r	.	.	.	16f#
.	.	.	.	16g
8F#	.	.	.	16c#
.	.	.	.	16g
8r	.	.	.	16f#
.	.	.	.	16e
8FF#	.	.	.	16d
.	.	.	.	16b
8r	.	.	.	16cc#
.	.	.	.	16dd
8F#	.	.	.	16f#
.	.	.	.	16an
8r	.	.	.	16g#
.	.	.	.	16f#
=9	=9	=9	=9	=9
8FF#	1ryy	1ryy	1ryy	16e#
.	.	.	.	16g#
8r	.	.	.	16a
.	.	.	.	16b
8F#	.	.	.	16e#
.	.	.	.	16dd
8r	.	.	.	16cc#
.	.	.	.	16b
8FF#	.	.	.	16gg#X
.	.	.	.	16ee#X
8r	.	.	.	16ff#
.	.	.	.	16gg#
8F#	.	.	.	16cc#
.	.	.	.	16bb
8r	.	.	.	16aa
.	.	.	.	16gg#
=10	=10	=10	=10	=10
8FF#	1ryy	1ryy	1ryy	16aa
.	.	.	.	16ff#
8r	.	.	.	16gg#
.	.	.	.	16aa
8F#	.	.	.	16cc#
.	.	.	.	16ee
8r	.	.	.	16dd#
.	.	.	.	16cc#
8BB	.	.	.	16dd#
.	.	.	.	16ff#
8r	.	.	.	16ggn
.	.	.	.	16aa
8D#	.	.	.	16b
.	.	.	.	16aa
8r	.	.	.	16gg
.	.	.	.	16ff#
=11	=11	=11	=11	=11
8EE	1ryy	1ryy	1ryy	16gg
.	.	.	.	16ee
8r	.	.	.	16ff#
.	.	.	.	16gg
8E	.	.	.	16b
.	.	.	.	16dd
8r	.	.	.	16ccn
.	.	.	.	16b
8EE	.	.	.	16cc
.	.	.	.	16dd#
8r	.	.	.	16ee
.	.	.	.	16ff#
8D#	.	.	.	16a
.	.	.	.	16ccn
8r	.	.	.	16b
.	.	.	.	16a
=12	=12	=12	=12	=12
8EE	1ryy	1ryy	1ryy	16g
.	.	.	.	16ee
8r	.	.	.	16ff#
.	.	.	.	16gg
8E	.	.	.	16b
.	.	.	.	16dd
8r	.	.	.	16cc#X
.	.	.	.	16b
8AA	.	.	.	16cc#
.	.	.	.	16ee
8r	.	.	.	16ff#
.	.	.	.	16gg
8C#	.	.	.	16a
.	.	.	.	16gg
8r	.	.	.	16ff#
.	.	.	.	16ee
=13	=13	=13	=13	=13
8DD	1ryy	1ryy	1ryy	16ff#
.	.	.	.	16dd
8r	.	.	.	16ee
.	.	.	.	16ff#
8D	.	.	.	16a
.	.	.	.	16ccn
8r	.	.	.	16b
.	.	.	.	16a
8DD	.	.	.	16b
.	.	.	.	16g
8r	.	.	.	16a
.	.	.	.	16b
8D	.	.	.	16c#
.	.	.	.	16b
8r	.	.	.	16a
.	.	.	.	16g
=14	=14	=14	=14	=14
8DD	1ryy	1ryy	1ryy	16f#
.	.	.	.	16d
8r	.	.	.	16e
.	.	.	.	16f#
8D	.	.	.	16A
.	.	.	.	16cn
8r	.	.	.	16B
.	.	.	.	16A
8DD	.	.	.	16B
.	.	.	.	16d
8r	.	.	.	16e
.	.	.	.	16f#
8D	.	.	.	16B
.	.	.	.	16a
8r	.	.	.	16g#
.	.	.	.	16f#
=15	=15	=15	=15	=15
8DD	1ryy	1ryy	1ryy	16g#
.	.	.	.	16e
8r	.	.	.	16f#
.	.	.	.	16g#
8G#	.	.	.	16B
.	.	.	.	16d
8r	.	.	.	16cn
.	.	.	.	16B
8Cn	.	.	.	16A
.	.	.	.	16c
8r	.	.	.	16d
.	.	.	.	16e
8F#	.	.	.	16A
.	.	.	.	16gn
8r	.	.	.	16f#
.	.	.	.	16e
=16	=16	=16	=16	=16
8BB	1ryy	1ryy	1ryy	16d#
.	.	.	.	16A
8r	.	.	.	16B
.	.	.	.	16cn
8D#	.	.	.	16F#
.	.	.	.	16c
8r	.	.	.	16B
.	.	.	.	16A
8E	.	.	.	16G
.	.	.	.	16e
8r	.	.	.	16f#
.	.	.	.	16g
8G	.	.	.	16B
.	.	.	.	16dn
8r	.	.	.	16c#
.	.	.	.	16B
=17	=17	=17	=17	=17
8BB	1ryy	1ryy	1ryy	16A#
.	.	.	.	16c#
8r	.	.	.	16d
.	.	.	.	16e
8E	.	.	.	16A#
.	.	.	.	16g
8r	.	.	.	16f#
.	.	.	.	16e
8G	.	.	.	16cc#
.	.	.	.	16a#X
8r	.	.	.	16b
.	.	.	.	16cc#
8A#	.	.	.	16f#
.	.	.	.	16ee
8r	.	.	.	16dd
.	.	.	.	16cc#
=18	=18	=18	=18	=18
8BB	1ryy	1ryy	1ryy	16dd
.	.	.	.	16b
8r	.	.	.	16cc#
.	.	.	.	16dd
8B	.	.	.	16f#
.	.	.	.	16a
8r	.	.	.	16g#
.	.	.	.	16f#
8E	.	.	.	16g#
.	.	.	.	16b
8r	.	.	.	16ccn
.	.	.	.	16dd
8G#	.	.	.	16e
.	.	.	.	16dd
8r	.	.	.	16cc
.	.	.	.	16b
=19	=19	=19	=19	=19
8AA	1ryy	1ryy	1ryy	16ccn
.	.	.	.	16a
8r	.	.	.	16b
.	.	.	.	16cc
8A	.	.	.	16e
.	.	.	.	16g
8r	.	.	.	16f#
.	.	.	.	16e
8D	.	.	.	16f#
.	.	.	.	16a
8r	.	.	.	16b
.	.	.	.	16ccn
8F#	.	.	.	16d
.	.	.	.	16cc
8r	.	.	.	16b
.	.	.	.	16a
=20	=20	=20	=20	=20
8GG	1ryy	1ryy	1ryy	16b
.	.	.	.	16g
8r	.	.	.	16a
.	.	.	.	16b
8G	.	.	.	16d
.	.	.	.	16b
8r	.	.	.	16a
.	.	.	.	16g
8BB	.	.	.	16dd
.	.	.	.	16g
8r	.	.	.	16a
.	.	.	.	16b
8G	.	.	.	16d
.	.	.	.	16b
8r	.	.	.	16a
.	.	.	.	16g
=21	=21	=21	=21	=21
8AA	1ryy	1ryy	1ryy	16ccn
.	.	.	.	16a
8r	.	.	.	16b
.	.	.	.	16cc
8G	.	.	.	16e
.	.	.	.	16g
8r	.	.	.	16f#
.	.	.	.	16e
8D	.	.	.	16f#
.	.	.	.	16a
8r	.	.	.	16b
.	.	.	.	16ccn
8F#	.	.	.	16d
.	.	.	.	16cc
8r	.	.	.	16b
.	.	.	.	16a
=22	=22	=22	=22	=22
8GG	1ryy	1ryy	1ryy	16b
.	.	.	.	16g
8r	.	.	.	16a
.	.	.	.	16b
8G	.	.	.	16d
.	.	.	.	16f#
8r	.	.	.	16e
.	.	.	.	16d
8GG	.	.	.	16e
.	.	.	.	16g
8r	.	.	.	16a
.	.	.	.	16b
8G	.	.	.	16e
.	.	.	.	16dd
8r	.	.	.	16cc#X
.	.	.	.	16b
=23	=23	=23	=23	=23
8GG	1ryy	1ryy	1ryy	16cc#
.	.	.	.	16a
8r	.	.	.	16b
.	.	.	.	16cc#
8C#	.	.	.	16e
.	.	.	.	16g
8r	.	.	.	16f#
.	.	.	.	16e
8FF#	.	.	.	16d
.	.	.	.	16f#
8r	.	.	.	16g
.	.	.	.	16a
8D	.	.	.	16B
.	.	.	.	16a
8r	.	.	.	16g
.	.	.	.	16f#
=24	=24	=24	=24	=24
8EE	1ryy	1ryy	1ryy	16g
.	.	.	.	16e
8r	.	.	.	16f#
.	.	.	.	16g
8D	.	.	.	16B
.	.	.	.	16d
8r	.	.	.	16c#
.	.	.	.	16B
8AA	.	.	.	16c#
.	.	.	.	16e
8r	.	.	.	16f#
.	.	.	.	16g
8C#	.	.	.	16A
.	.	.	.	16g
8r	.	.	.	16f#
.	.	.	.	16e
=25	=25	=25	=25	=25
8DD	1ryy	1ryy	1ryy	16f#
.	.	.	.	16d
8r	.	.	.	16e
.	.	.	.	16f#
8D	.	.	.	16A
.	.	.	.	16f#
8r	.	.	.	16e
.	.	.	.	16d
8FF#	.	.	.	16a
.	.	.	.	16f#
8r	.	.	.	16g
.	.	.	.	16a
8A	.	.	.	16d
.	.	.	.	16ccn
8r	.	.	.	16b
.	.	.	.	16a
=26	=26	=26	=26	=26
8GG	1ryy	1ryy	1ryy	16b
.	.	.	.	16g
8r	.	.	.	16a
.	.	.	.	16b
8G	.	.	.	16d
.	.	.	.	16b
8r	.	.	.	16a
.	.	.	.	16g
8BB	.	.	.	16dd
.	.	.	.	16b
8r	.	.	.	16cc#
.	.	.	.	16dd
8d	.	.	.	16g#
.	.	.	.	16ffn
8r	.	.	.	16ee
.	.	.	.	16dd
=27	=27	=27	=27	=27
*	*staff:5	*	*	*
*	*clefF4	*	*	*
*	*k[f#c#]	*	*	*
8AA	[1AA	1ryy	1ryy	16cc#
.	.	.	.	16a
8r	.	.	.	16b
.	.	.	.	16cc#
8G	.	.	.	16e
.	.	.	.	16g
8r	.	.	.	16f#
.	.	.	.	16e
8F#	.	.	.	16a
.	.	.	.	16dd
8r	.	.	.	16ee
.	.	.	.	16ff#
8D	.	.	.	16b
.	.	.	.	16aa
8r	.	.	.	16gg
.	.	.	.	16ff#
=28	=28	=28	=28	=28
8E	1AA_	1ryy	1ryy	16gg
.	.	.	.	16cc#
8r	.	.	.	16dd
.	.	.	.	16ee
8C#	.	.	.	16a
.	.	.	.	16gg
8r	.	.	.	16ff#
.	.	.	.	16ee
8D	.	.	.	16ff#
.	.	.	.	16b
8r	.	.	.	16cc#
.	.	.	.	16dd
8BB	.	.	.	16g#
.	.	.	.	16ff#
8r	.	.	.	16ee
.	.	.	.	16dd
=29	=29	=29	=29	=29
*MM112	*MM112	*MM112	*MM112	*MM112
16r	1AA]	1ryy	1ryy	16cc#
16E	.	.	.	16g
16F#	.	.	.	16a
16G	.	.	.	16b-
16C#	.	.	.	16e
16E	.	.	.	16g
16D	.	.	.	16fn
16C#	.	.	.	16e
16D	.	.	.	16f
16Fn	.	.	.	16dd
16G	.	.	.	16ee
16A	.	.	.	16ffn
16E	.	.	.	16cc#
16G	.	.	.	16ee
16F	.	.	.	16dd
16E	.	.	.	16cc#
=30	=30	=30	=30	=30
16Fn	1ryy	1ryy	1ryy	16dd
16D	.	.	.	16bb-
16E	.	.	.	16aa
16F	.	.	.	16gg
16AA	.	.	.	16ffn
16Cn	.	.	.	16ee
16BB-	.	.	.	16dd
16AA	.	.	.	16cc#
[2GG#	.	.	.	16dd
.	.	.	.	16ffn
.	.	.	.	16ee
.	.	.	.	16dd
.	.	.	.	16bbn
.	.	.	.	16gg#
.	.	.	.	16aa
.	.	.	.	16bb
=31	=31	=31	=31	=31
1GG#]	1ryy	1ryy	1ryy	16ffn
.	.	.	.	16dd
.	.	.	.	16ee
.	.	.	.	16ff
.	.	.	.	16b
.	.	.	.	16g#
.	.	.	.	16a
.	.	.	.	16b
.	.	.	.	16e
.	.	.	.	16f#
.	.	.	.	16g#X
.	.	.	.	16a
.	.	.	.	16b
.	.	.	.	16cc#
.	.	.	.	16dd
.	.	.	.	16ee
=32	=32	=32	=32	=32
*MM108	*MM108	*MM108	*MM108	*MM108
*	*	*staff:1	*staff:2	*
*	*	*clefF4	*clefG2	*
*	*	*k[f#c#]	*k[f#c#]	*
1AA	1ryy	8r	16ff	4.ffn
.	.	.	16cc#	.
.	.	8A	16dd	.
.	.	.	16a	.
.	.	8G	16b-	.
.	.	.	16g	.
.	.	8C#	16ee	[8ee
.	.	.	16g	.
.	.	8Fn	16a	8ee]
.	.	.	16fn	.
.	.	8D	16dd	[8dd
.	.	.	16f	.
.	.	8E	16g	8dd]
.	.	.	16e	.
.	.	8G	16cc#	8cc#
.	.	.	16e	.
=33	=33	=33	=33	=33
*MM104	*MM104	*MM104	*MM104	*MM104
4AA	1ryy	4D 4Fn 4G# 4B	4d 4fn 4g#	4b [4dd
4r	.	4r	4ryy	32dd]
.	.	.	.	32cc#
.	.	.	.	32b
.	.	.	.	32a
.	.	.	.	32g#X
.	.	.	.	32f#
.	.	.	.	32e
.	.	.	.	32f#
2r	.	2r	2ryy	32g#X
.	.	.	.	32a
.	.	.	.	32b
.	.	.	.	32cc#
.	.	.	.	32dd
.	.	.	.	32ee
.	.	.	.	32ffn
.	.	.	.	32ee
.	.	.	.	32dd
.	.	.	.	32cc#
.	.	.	.	32b
.	.	.	.	32a
.	.	.	.	32g#X
.	.	.	.	32f#
.	.	.	.	32e
.	.	.	.	32d
=34	=34	=34	=34	=34
*MM80	*MM80	*MM80	*MM80	*MM80
*	*staff:1	*	*	*
2ryy	2ryy	2ryy	8c# 8e 8g 8b-	8cc# 8ee 8gg 8bb-X
.	.	.	8r	8r
.	.	.	8d 8fn 8g# 8bn	8dd 8ffn 8gg#X 8bbn
.	.	.	8r	8r
2AA	4E	2A	2e 2a	4dd
.	4G	.	.	4cc#
=35	=35	=35	=35	=35
1D	1F#	1A	1f#;y 1a;y	1dd;
==	==	==	==	==
*-	*-	*-	*-	*-
!!!AFR:  prelude
!!!EFL:  09/96
!!!END:  1994/01/10/
!!!VID:  435177056 Bach, BWV 850-01
!!!AST:  Baroque
!!!OCY:  Deutschland
!!!ODT:  1722///
!!!PDT:  1801///
!!!EED:  Walter Hewlett
!!!ENC:  Walter Hewlett
!!!YOR:  Bach Gesellschaft Edition xiv
!!!AFT:  enhanced SCORE
!!!RDT:  2011/10/07/ by Andreas Kornstaedt using massScr2hmd
!!!SCA1: Thematisch-systematisches Verzeichnis der musikalischen Werke 
!!!SCA2: Johann Sebastian Bach: Bach-Werke-Verzeichnis (Schmieder)
!!!YEC1: Copyright 1994, 2000 Center for Computer Assisted Research 
!!!YEC2: in the Humanities
!!!YEM1: Rights to all derivative editions reserved.
!!!YEM2: Refer to licensing agreement for further details.
!!!YEN:  United States of America
!!!ref:  @{OTL}, @{SCT}
!!muse2ps: T^@{OTL} @{ONM} in @{OKY}^C^J.S. Bach\n@{SCT}-@{OMV}^
!!muse2ps: u^@{OPR@ENG}, @{OVM@ENG}^j
